src/lib/packages/icons/src/assets/line/home-wifi.svg

<svg width="24" height="24" viewBox="0 0 24 24" fill="none" xmlns="http://www.w3.org/2000/svg">
<path d="M20.208 8.14101L14.088 3.01003C12.879 1.99503 11.121 1.99503 9.91199 3.01003L3.79199 8.14101C2.83599 8.93401 2.25 9.52804 2.25 11.65V18C2.25 20.418 3.582 21.75 6 21.75H18C20.418 21.75 21.75 20.418 21.75 18V11.65C21.75 9.52804 21.164 8.93401 20.208 8.14101ZM20.25 18C20.25 19.577 19.577 20.25 18 20.25H6C4.423 20.25 3.75 19.577 3.75 18V11.65C3.75 10.124 4.00202 9.91506 4.74902 9.29506L10.875 4.15908C11.201 3.88608 11.601 3.74904 12 3.74904C12.399 3.74904 12.799 3.88608 13.125 4.15908L19.251 9.29506C19.998 9.91506 20.25 10.124 20.25 11.65V18ZM14.704 13.664C15.033 13.914 15.098 14.385 14.848 14.715C14.7 14.909 14.476 15.011 14.249 15.011C14.091 15.011 13.932 14.9611 13.796 14.8581C12.767 14.0761 11.234 14.0761 10.204 14.8581C9.87298 15.1091 9.40398 15.044 9.15198 14.714C8.90198 14.384 8.96602 13.914 9.29602 13.663C10.853 12.481 13.147 12.481 14.704 13.664ZM16.989 11.598C17.302 11.868 17.339 12.342 17.068 12.656C16.92 12.828 16.711 12.917 16.5 12.917C16.326 12.917 16.152 12.857 16.011 12.735C14.899 11.777 13.474 11.25 12 11.25C10.526 11.25 9.10201 11.777 7.98901 12.735C7.67601 13.005 7.20203 12.97 6.93103 12.656C6.66003 12.342 6.69701 11.868 7.01001 11.598C8.39501 10.406 10.166 9.75002 11.999 9.75002C13.832 9.75002 15.604 10.406 16.989 11.598ZM13 16.5C13 17.052 12.552 17.5 12 17.5C11.448 17.5 11 17.052 11 16.5C11 15.948 11.448 15.5 12 15.5C12.552 15.5 13 15.948 13 16.5Z" fill="currentColor"/>
</svg>

<svg xmlns="http://www.w3.org/2000/svg" width="24" height="24" fill="none"><path fill="currentColor" d="m20.208 8.141-6.12-5.131a3.244 3.244 0 0 0-4.176 0l-6.12 5.131c-.956.793-1.542 1.387-1.542 3.509V18c0 2.418 1.332 3.75 3.75 3.75h12c2.418 0 3.75-1.332 3.75-3.75v-6.35c0-2.122-.586-2.716-1.542-3.509ZM20.25 18c0 1.577-.673 2.25-2.25 2.25H6c-1.577 0-2.25-.673-2.25-2.25v-6.35c0-1.526.252-1.735.999-2.355l6.126-5.136a1.75 1.75 0 0 1 2.25 0l6.126 5.136c.747.62.999.829.999 2.355V18Zm-5.546-4.336a.751.751 0 0 1-.455 1.347.748.748 0 0 1-.453-.153c-1.029-.782-2.562-.782-3.592 0a.75.75 0 0 1-.908-1.195c1.557-1.182 3.851-1.182 5.408.001Zm2.285-2.066a.75.75 0 0 1-.978 1.137A6.146 6.146 0 0 0 12 11.25a6.148 6.148 0 0 0-4.011 1.485.75.75 0 0 1-.979-1.137 7.648 7.648 0 0 1 4.989-1.848 7.65 7.65 0 0 1 4.99 1.848ZM13 16.5a1 1 0 1 1-2 0 1 1 0 0 1 2 0Z"/></svg>
